dist/img/svg/icon-btn-loading.svg

<svg width="21" height="21" viewBox="0 0 21 21" fill="none" xmlns="http://www.w3.org/2000/svg">
<path d="M1.74566 14.1371C1.74566 14.9114 1.74674 15.6856 1.74566 16.4599C1.74566 16.7287 1.73493 17.0239 1.40334 17.0285C1.06745 17.0331 1.00521 16.7482 1.00414 16.453C1.00199 15.3766 0.996628 14.3002 1.00307 13.225C1.00629 12.7298 1.14901 12.5725 1.60401 12.569C2.60952 12.561 3.61503 12.5679 4.61947 12.5702C4.69888 12.5702 4.78151 12.5748 4.85877 12.5954C5.06589 12.6506 5.19251 12.7942 5.17427 13.0274C5.15603 13.2468 5.00794 13.3525 4.81263 13.3559C4.25139 13.3674 3.69015 13.372 3.12891 13.372C2.90141 13.372 2.59772 13.3008 2.47753 13.4673C2.33802 13.6626 2.5666 13.9108 2.66425 14.121C4.22778 17.488 7.55552 19.5501 11.0356 19.163C14.578 18.7689 17.0204 16.7241 18.3597 13.1825C18.3897 13.1032 18.4144 13.0205 18.4412 12.9389C18.5303 12.6701 18.7127 12.5839 18.9499 12.6793C19.1838 12.7735 19.2106 12.9803 19.1387 13.2146C18.8157 14.26 18.3328 15.2169 17.7169 16.0946C14.5995 20.5323 8.49235 21.31 4.46816 17.7994C3.31241 16.7896 2.45392 15.5466 1.74566 14.1371Z" fill="white"/>
<path d="M19.2478 6.76915C19.2478 6.06243 19.2468 5.35572 19.2489 4.649C19.2489 4.47666 19.236 4.29853 19.3328 4.14585C19.4232 4.00359 19.5501 3.92725 19.7136 3.96195C19.9008 4.00127 19.9847 4.15048 19.988 4.33902C19.9976 4.84447 19.9955 5.34993 19.9966 5.85655C19.9976 6.52163 19.989 7.1867 19.9998 7.85062C20.0063 8.24736 19.8578 8.43821 19.4759 8.43474C18.441 8.42664 17.4061 8.43474 16.3712 8.43011C16.1227 8.42895 15.8408 8.40813 15.843 8.05188C15.8452 7.69332 16.113 7.62855 16.3895 7.62855C17.0081 7.62739 17.6266 7.61698 18.2441 7.63317C18.554 7.64127 18.6648 7.58806 18.5077 7.22719C17.2383 4.32514 15.1437 2.52653 12.2252 1.94474C9.35177 1.37219 6.81832 2.24778 4.69366 4.39106C3.82551 5.26665 3.16606 6.32731 2.74113 7.54064C2.66582 7.75694 2.58944 7.97439 2.48617 8.1768C2.3958 8.35377 2.24304 8.45671 2.04618 8.37343C1.87405 8.30056 1.81488 8.13863 1.82779 7.95125C1.83532 7.85178 1.86007 7.75231 1.88804 7.65631C2.91217 4.16899 6.39661 1.24496 9.76379 1.02635C14.0002 0.751067 17.1038 2.63295 19.0929 6.65811C19.1166 6.70553 19.1478 6.74949 19.1758 6.7946C19.1994 6.78534 19.2242 6.77725 19.2478 6.76915Z" fill="white"/>
<path d="M1.74566 14.1371C1.74566 14.9114 1.74674 15.6856 1.74566 16.4599C1.74566 16.7287 1.73493 17.0239 1.40334 17.0285C1.06745 17.0331 1.00521 16.7482 1.00414 16.453C1.00199 15.3766 0.996628 14.3002 1.00307 13.225C1.00629 12.7298 1.14901 12.5725 1.60401 12.569C2.60952 12.561 3.61503 12.5679 4.61947 12.5702C4.69888 12.5702 4.78151 12.5748 4.85877 12.5954C5.06589 12.6506 5.19251 12.7942 5.17427 13.0274C5.15603 13.2468 5.00794 13.3525 4.81263 13.3559C4.25139 13.3674 3.69015 13.372 3.12891 13.372C2.90141 13.372 2.59772 13.3008 2.47753 13.4673C2.33802 13.6626 2.5666 13.9108 2.66425 14.121C4.22778 17.488 7.55552 19.5501 11.0356 19.163C14.578 18.7689 17.0204 16.7241 18.3597 13.1825C18.3897 13.1032 18.4144 13.0205 18.4412 12.9389C18.5303 12.6701 18.7127 12.5839 18.9499 12.6793C19.1838 12.7735 19.2106 12.9803 19.1387 13.2146C18.8157 14.26 18.3328 15.2169 17.7169 16.0946C14.5995 20.5323 8.49235 21.31 4.46816 17.7994C3.31241 16.7896 2.45392 15.5466 1.74566 14.1371Z" stroke="white" stroke-width="0.5"/>
<path d="M19.2478 6.76915C19.2478 6.06243 19.2468 5.35572 19.2489 4.649C19.2489 4.47666 19.236 4.29853 19.3328 4.14585C19.4232 4.00359 19.5501 3.92725 19.7136 3.96195C19.9008 4.00127 19.9847 4.15048 19.988 4.33902C19.9976 4.84447 19.9955 5.34993 19.9966 5.85655C19.9976 6.52163 19.989 7.1867 19.9998 7.85062C20.0063 8.24736 19.8578 8.43821 19.4759 8.43474C18.441 8.42664 17.4061 8.43474 16.3712 8.43011C16.1227 8.42895 15.8408 8.40813 15.843 8.05188C15.8452 7.69332 16.113 7.62855 16.3895 7.62855C17.0081 7.62739 17.6266 7.61698 18.2441 7.63317C18.554 7.64127 18.6648 7.58806 18.5077 7.22719C17.2383 4.32514 15.1437 2.52653 12.2252 1.94474C9.35177 1.37219 6.81832 2.24778 4.69366 4.39106C3.82551 5.26665 3.16606 6.32731 2.74113 7.54064C2.66582 7.75694 2.58944 7.97439 2.48617 8.1768C2.3958 8.35377 2.24304 8.45671 2.04618 8.37343C1.87405 8.30056 1.81488 8.13863 1.82779 7.95125C1.83532 7.85178 1.86007 7.75231 1.88804 7.65631C2.91217 4.16899 6.39661 1.24496 9.76379 1.02635C14.0002 0.751067 17.1038 2.63295 19.0929 6.65811C19.1166 6.70553 19.1478 6.74949 19.1758 6.7946C19.1994 6.78534 19.2242 6.77725 19.2478 6.76915Z" stroke="white" stroke-width="0.5"/>
</svg>

<svg width="21" height="21" viewBox="0 0 21 21" fill="none" xmlns="http://www.w3.org/2000/svg"><path d="M1.746 14.137v2.323c0 .269-.011.564-.343.569-.336.004-.398-.28-.399-.576-.002-1.076-.007-2.153 0-3.228.002-.495.145-.652.6-.656 1.006-.008 2.011-.001 3.015.001.08 0 .163.005.24.025.207.056.334.2.315.432-.018.22-.166.325-.361.329-.562.011-1.123.016-1.684.016-.228 0-.531-.071-.651.095-.14.196.089.444.186.654 1.564 3.367 4.892 5.43 8.372 5.042 3.542-.394 5.984-2.439 7.324-5.98.03-.08.054-.162.081-.244.09-.269.272-.355.509-.26.234.095.26.301.189.536a10.27 10.27 0 01-1.422 2.88C14.6 20.532 8.492 21.31 4.468 17.799c-1.156-1.01-2.014-2.252-2.722-3.662zM19.248 6.77V4.648c0-.172-.012-.35.085-.503.09-.142.217-.219.38-.184.188.04.272.188.275.377.01.505.008 1.01.009 1.518 0 .665-.008 1.33.003 1.994.006.396-.142.587-.524.584-1.035-.008-2.07 0-3.105-.005-.248-.001-.53-.022-.528-.378.002-.359.27-.423.547-.423.618-.002 1.237-.012 1.854.004.31.008.42-.045.264-.406-1.27-2.902-3.364-4.7-6.283-5.282-2.873-.573-5.407.303-7.531 2.446a8.356 8.356 0 00-1.953 3.15 5.037 5.037 0 01-.255.636c-.09.177-.243.28-.44.196-.172-.072-.231-.234-.218-.422.007-.1.032-.199.06-.295 1.024-3.487 4.509-6.411 7.876-6.63C14 .75 17.104 2.632 19.093 6.657c.024.048.055.091.083.137.023-.01.048-.018.072-.026z" fill="#fff"/><path d="M1.746 14.137v2.323c0 .269-.011.564-.343.569-.336.004-.398-.28-.399-.576-.002-1.076-.007-2.153 0-3.228.002-.495.145-.652.6-.656 1.006-.008 2.011-.001 3.015.001.08 0 .163.005.24.025.207.056.334.2.315.432-.018.22-.166.325-.361.329-.562.011-1.123.016-1.684.016-.228 0-.531-.071-.651.095-.14.196.089.444.186.654 1.564 3.367 4.892 5.43 8.372 5.042 3.542-.394 5.984-2.439 7.324-5.98.03-.08.054-.162.081-.244.09-.269.272-.355.509-.26.234.095.26.301.189.536a10.27 10.27 0 01-1.422 2.88C14.6 20.532 8.492 21.31 4.468 17.799c-1.156-1.01-2.014-2.252-2.722-3.662zM19.248 6.77V4.648c0-.172-.012-.35.085-.503.09-.142.217-.219.38-.184.188.04.272.188.275.377.01.505.008 1.01.009 1.518 0 .665-.008 1.33.003 1.994.006.396-.142.587-.524.584-1.035-.008-2.07 0-3.105-.005-.248-.001-.53-.022-.528-.378.002-.359.27-.423.547-.423.618-.002 1.237-.012 1.854.004.31.008.42-.045.264-.406-1.27-2.902-3.364-4.7-6.283-5.282-2.873-.573-5.407.303-7.531 2.446a8.356 8.356 0 00-1.953 3.15 5.037 5.037 0 01-.255.636c-.09.177-.243.28-.44.196-.172-.072-.231-.234-.218-.422.007-.1.032-.199.06-.295 1.024-3.487 4.509-6.411 7.876-6.63C14 .75 17.104 2.632 19.093 6.657c.024.048.055.091.083.137.023-.01.048-.018.072-.026z" stroke="#fff" stroke-width=".5"/></svg>
